X:1
T:Darmstadt, 87.87 D
T:Darmstadt, 87.87 D
T:William James Kirkpatrick, 1885
T:Public Domain Courtesy of the Cyber Hymnal™
C:William James Kirkpatrick, 1885
Z:Public Domain
Z:Courtesy of the Cyber Hymnal™
%%score ( 1 2 ) ( 3 4 )
L:1/8
Q:1/4=110
M:4/4
K:G
V:1 treble 
V:2 treble 
V:3 bass 
V:4 bass 
V:1
 D2 | [DB]3 [^C^A] [DB]2 [B,D]2 | [CE]2 [EG]4 [DB]2 | [DA]3 [DG] [DA]2 [DB]2 | [DA]6 D2 | %5
 [DB]3 [^C^A] [DB]2 [B,D]2 | [CE]2 [EG]4 [DB]2 | [CA]3 [B,G] [DB]3 [CA] | [B,G]6 [Gd]2 | %9
 [Fe]3 [FA] [FA]2 [GB]2 | [Fc]2 [Fc]4 [Fd]2 | [Gd]3 [Gd] [GB]2 G2 | [FA]6 [=FB]2 | %13
 [Ec]3 [EB] [Ec]2 [CE]2 | [B,D]2 [DG]4 [DB]2 | [^CA]3 [CG] [DB]3 [=CA] | [B,G]6 |] %17
V:2
 D2 | x8 | x8 | x8 | x6 D2 | x8 | x8 | x8 | x8 | x8 | x8 | x6 G2 | x8 | x8 | x8 | x8 | x6 |] %17
V:3
 D,2 | [G,,G,]3 [G,,G,] [G,,G,]2 [G,,G,]2 | [C,G,]2 [C,G,]4 [G,,G,]2 | %3
 [D,F,]3 [D,E,] [D,F,]2 [D,G,]2 | [D,F,]6 [D,F,]2 | [G,,G,]3 [G,,G,] [G,,G,]2 [G,,G,]2 | %6
 [C,G,]2 [C,G,]4 [G,,G,]2 | [D,F,]3 [D,G,] [D,G,]3 [D,F,] | [G,,D,G,]6 [G,B,]2 | %9
 [D,A,]3 [D,D] [D,D]2 [D,B,]2 | [D,A,]2 [D,A,]4 [D,C]2 | [G,B,]3 [G,B,] [G,D]2 [G,B,]2 | %12
 [D,D]6 [G,D]2 | [C,C]3 [C,G,] [C,G,]2 [C,G,]2 | [G,,G,]2 [G,,B,]4 G,2 | %15
 [E,G,]3 [E,G,] [D,G,]3 D, | [G,,D,]6 |] %17
V:4
 D,2 | x8 | x8 | x8 | x8 | x8 | x8 | x8 | x8 | x8 | x8 | x8 | x8 | x8 | x6 G,2 | x7 D, | x6 |] %17

